docs/img/lending/Crown-black.svg

<svg width="24" height="25" viewBox="0 0 24 25" fill="none" xmlns="http://www.w3.org/2000/svg">
<path d="M5.45425 20.1008C5.45425 20.3203 5.63023 20.5 5.85424 20.5H18.1497C18.3697 20.5 18.5497 20.3203 18.5497 20.1008V18.6398H5.45425V20.1008ZM21.8295 7.30431C21.6815 7.20453 21.4896 7.21245 21.3496 7.32026L16.0618 11.5165L12.35 4.69312C12.2139 4.43359 11.79 4.43767 11.65 4.69312L7.93814 11.5165L2.65039 7.32026C2.51039 7.20849 2.3184 7.20453 2.17441 7.30431C2.02642 7.40415 1.96641 7.58782 2.01843 7.75548L5.30352 17.8413H18.7003L21.9815 7.75548C22.0335 7.58782 21.9736 7.40415 21.8295 7.30431Z" fill="#1D1F21"/>
</svg>

<svg width="24" height="25" fill="none" xmlns="http://www.w3.org/2000/svg"><path d="M5.454 20.1c0 .22.176.4.4.4H18.15a.4.4 0 00.4-.4v-1.46H5.454v1.46zM21.83 7.305a.409.409 0 00-.48.016l-5.288 4.197-3.712-6.824c-.136-.26-.56-.255-.7 0l-3.712 6.824L2.65 7.32a.397.397 0 00-.476-.016.4.4 0 00-.156.451l3.286 10.086H18.7l3.282-10.086a.403.403 0 00-.152-.45z" fill="#1D1F21"/></svg>
